public/flags/ch.svg

<?xml version="1.0" encoding="utf-8"?>
<!-- Uploaded to: SVG Repo, www.svgrepo.com, Generator: SVG Repo Mixer Tools -->
<svg width="800px" height="800px" viewBox="0 -4 28 28" fill="none" xmlns="http://www.w3.org/2000/svg">
<g clip-path="url(#clip0_503_3372)">
<rect width="28" height="20" rx="2" fill="white"/>
<mask id="mask0_503_3372" style="mask-type:alpha" maskUnits="userSpaceOnUse" x="0" y="0" width="28" height="20">
<rect width="28" height="20" rx="2" fill="white"/>
</mask>
<g mask="url(#mask0_503_3372)">
<rect width="28" height="20" fill="#FF0000"/>
<path fill-rule="evenodd" clip-rule="evenodd" d="M12 12H8.33333C8.14924 12 8 11.8508 8 11.6667V8.33333C8 8.14924 8.14924 8 8.33333 8H12V4.33333C12 4.14924 12.1492 4 12.3333 4H15.6667C15.8508 4 16 4.14924 16 4.33333V8H19.6667C19.8508 8 20 8.14924 20 8.33333V11.6667C20 11.8508 19.8508 12 19.6667 12H16V15.6667C16 15.8508 15.8508 16 15.6667 16H12.3333C12.1492 16 12 15.8508 12 15.6667V12Z" fill="white"/>
</g>
</g>
<defs>
<clipPath id="clip0_503_3372">
<rect width="28" height="20" rx="2" fill="white"/>
</clipPath>
</defs>
</svg>

<svg xmlns="http://www.w3.org/2000/svg" width="800" height="800" fill="none" viewBox="0 -4 28 28"><g clip-path="url(#a)"><rect width="28" height="20" fill="#fff" rx="2"/><mask id="b" width="28" height="20" x="0" y="0" maskUnits="userSpaceOnUse" style="mask-type:alpha"><rect width="28" height="20" fill="#fff" rx="2"/></mask><g mask="url(#b)"><path fill="red" d="M0 0h28v20H0z"/><path fill="#fff" fill-rule="evenodd" d="M12 12H8.333A.333.333 0 0 1 8 11.667V8.333C8 8.15 8.15 8 8.333 8H12V4.333c0-.184.15-.333.333-.333h3.334c.184 0 .333.15.333.333V8h3.667c.184 0 .333.15.333.333v3.334c0 .184-.15.333-.333.333H16v3.667c0 .184-.15.333-.333.333h-3.334a.333.333 0 0 1-.333-.333z" clip-rule="evenodd"/></g></g><defs><clipPath id="a"><rect width="28" height="20" fill="#fff" rx="2"/></clipPath></defs></svg>
